icons/speech_language_therapy_fill.svg

<svg width="48" height="48" viewBox="0 0 48 48" fill="none" xmlns="http://www.w3.org/2000/svg">
<path fill-rule="evenodd" clip-rule="evenodd" d="M6 9C6 7.34315 7.34315 6 9 6H39C40.6569 6 42 7.34315 42 9V39C42 40.6569 40.6569 42 39 42H9C7.34315 42 6 40.6569 6 39V9ZM11.4337 10C11.1726 10 10.9139 10.0107 10.6579 10.0316C10.2861 10.062 10 10.3699 10 10.7397V38.2895C10 38.6819 10.3209 39 10.7169 39H12.8674C13.2633 39 13.5843 38.6819 13.5843 38.2895V33.1039L16.521 34.3514C16.8965 34.5109 17.353 34.6789 17.8296 34.7412C18.3151 34.8045 18.8659 34.7633 19.3783 34.4532C20.201 33.9551 20.7528 33.0549 20.7528 32.0263V29.8947C20.7528 29.5023 20.4318 29.1842 20.0359 29.1842L17.8296 28.4737C17.8296 27.7522 18.4191 27.7568 19.1294 27.7622C19.1917 27.7627 19.2552 27.7632 19.3191 27.7632H20.0359C20.4318 27.7632 20.7528 27.445 20.7528 27.0526V25.6316H21.5639C22.709 25.6316 23.392 24.3666 22.7568 23.4223L20.7528 20.4428V19.2368C20.7528 14.1355 16.5805 10 11.4337 10ZM18.6022 21.0132C18.6022 21.6018 18.1208 22.0789 17.5269 22.0789C16.9331 22.0789 16.4517 21.6018 16.4517 21.0132C16.4517 20.4245 16.9331 19.9474 17.5269 19.9474C18.1208 19.9474 18.6022 20.4245 18.6022 21.0132ZM26.6842 28C26.6842 28.893 26.2051 29.6693 25.4955 30.084L26.5045 31.8108C27.8085 31.0488 28.6842 29.6259 28.6842 28C28.6842 26.3741 27.8085 24.9512 26.5045 24.1892L25.4955 25.916C26.2051 26.3307 26.6842 27.107 26.6842 28ZM30.8947 28C30.8947 25.9328 29.9952 24.214 28.7823 23.3365L29.9546 21.7161C31.7621 23.0238 32.8947 25.3893 32.8947 28C32.8947 30.6107 31.7621 32.9762 29.9546 34.2839L28.7823 32.6635C29.9952 31.786 30.8947 30.0672 30.8947 28ZM35.1053 28C35.1053 31.1814 33.8411 33.848 32.1155 35.2165L33.3582 36.7835C35.6598 34.9583 37.1053 31.6555 37.1053 28C37.1053 24.3445 35.6598 21.0417 33.3582 19.2165L32.1155 20.7835C33.8411 22.152 35.1053 24.8186 35.1053 28Z" fill="black"/>
</svg>

<svg
  xmlns="http://www.w3.org/2000/svg"
  width="24"
  height="24"
  viewBox="0 0 24 24"
  fill="none"
  stroke="currentColor"
  stroke-width="2"
  stroke-linecap="round"
  stroke-linejoin="round"
>
  <path
    fill-rule="evenodd"
    d="M6 9a3 3 0 0 1 3-3h30a3 3 0 0 1 3 3v30a3 3 0 0 1-3 3H9a3 3 0 0 1-3-3zm5.434 1q-.392 0-.776.032a.713.713 0 0 0-.658.708v27.55c0 .392.32.71.717.71h2.15a.714.714 0 0 0 .717-.71v-5.186l2.937 1.247c.375.16.832.328 1.309.39.485.063 1.036.022 1.548-.288a2.84 2.84 0 0 0 1.375-2.427v-2.131a.714.714 0 0 0-.717-.71l-2.206-.711c0-.722.59-.717 1.3-.712l.19.001h.716a.714.714 0 0 0 .717-.71v-1.421h.81c1.146 0 1.829-1.265 1.194-2.21l-2.004-2.98v-1.205c0-5.101-4.172-9.237-9.32-9.237m7.168 11.013a1.07 1.07 0 0 1-1.075 1.066 1.07 1.07 0 0 1-1.075-1.066 1.07 1.07 0 0 1 1.075-1.066 1.07 1.07 0 0 1 1.075 1.066M26.684 28c0 .893-.479 1.67-1.189 2.084l1.01 1.727A4.41 4.41 0 0 0 28.685 28a4.41 4.41 0 0 0-2.18-3.81l-1.01 1.726A2.41 2.41 0 0 1 26.686 28m4.21 0c0-2.067-.899-3.786-2.112-4.663l1.173-1.62c1.807 1.307 2.94 3.672 2.94 6.283 0 2.61-1.133 4.976-2.94 6.284l-1.173-1.62c1.213-.878 2.113-2.597 2.113-4.664m4.211 0c0 3.181-1.264 5.848-2.99 7.217l1.243 1.566c2.302-1.825 3.747-5.128 3.747-8.783s-1.445-6.958-3.747-8.783l-1.242 1.567c1.725 1.368 2.99 4.035 2.99 7.216"
    clip-rule="evenodd"
  />
</svg>
